X:495
T:Saucy Little Bird on Nelly's Hat, The
C:Harry Tierny
M:4/4
L:1/8
K:G
(3DEF | G2 G2 G>B A>G | F>A d2 d2- d>c |
B>d B>G A>c A>F | G>A (3BAG D2 (3DEF |
G2 G2 G>B A>G | F>A d2 d2- d>c |
B>d B>G A>c A>F | G2 G2 G2 :|
B>c | d2 d2 d2 e2 | d2 c>B c2 A>B |
c>B A>B c2 d2 | c2 B>A B2 (3DEF |
G2 G2 G>B A>G | (3FGA d2 d2- d>c |
B>d B>G A>c A>F | G2 G2 G2 :|
